fs/calendar_rtl_28_filled.svg

<svg viewBox="0 0 28 28" fill="none" xmlns="http://www.w3.org/2000/svg" height="1em" width="1em">
  <path d="M3 9.5V21.75C3 23.5449 4.45507 25 6.25 25H21.75C23.5449 25 25 23.5449 25 21.75V9.5H3ZM19.2587 17.5014C19.9491 17.5014 20.5087 18.0611 20.5087 18.7514C20.5087 19.4418 19.9491 20.0014 19.2587 20.0014C18.5684 20.0014 18.0087 19.4418 18.0087 18.7514C18.0087 18.0611 18.5684 17.5014 19.2587 17.5014ZM14.0043 17.5014C14.6946 17.5014 15.2543 18.0611 15.2543 18.7514C15.2543 19.4418 14.6946 20.0014 14.0043 20.0014C13.3139 20.0014 12.7543 19.4418 12.7543 18.7514C12.7543 18.0611 13.3139 17.5014 14.0043 17.5014ZM19.2587 12.5014C19.9491 12.5014 20.5087 13.0611 20.5087 13.7514C20.5087 14.4418 19.9491 15.0014 19.2587 15.0014C18.5684 15.0014 18.0087 14.4418 18.0087 13.7514C18.0087 13.0611 18.5684 12.5014 19.2587 12.5014ZM14.0043 12.5014C14.6946 12.5014 15.2543 13.0611 15.2543 13.7514C15.2543 14.4418 14.6946 15.0014 14.0043 15.0014C13.3139 15.0014 12.7543 14.4418 12.7543 13.7514C12.7543 13.0611 13.3139 12.5014 14.0043 12.5014ZM8.74978 12.5014C9.44014 12.5014 9.99978 13.0611 9.99978 13.7514C9.99978 14.4418 9.44014 15.0014 8.74978 15.0014C8.05943 15.0014 7.49978 14.4418 7.49978 13.7514C7.49978 13.0611 8.05943 12.5014 8.74978 12.5014ZM6.25 3C4.45507 3 3 4.45507 3 6.25V8H25V6.25C25 4.45507 23.5449 3 21.75 3H6.25Z" fill="#212121"/>
</svg>

<svg viewBox="0 0 28 28" fill="none" xmlns="http://www.w3.org/2000/svg" height="1em" width="1em">
  <path d="M3 9.5v12.25A3.25 3.25 0 0 0 6.25 25h15.5A3.25 3.25 0 0 0 25 21.75V9.5H3Zm16.259 8.001a1.25 1.25 0 1 1 0 2.5 1.25 1.25 0 0 1 0-2.5Zm-5.255 0a1.25 1.25 0 1 1 0 2.5 1.25 1.25 0 0 1 0-2.5Zm5.255-5a1.25 1.25 0 1 1 0 2.5 1.25 1.25 0 0 1 0-2.5Zm-5.255 0a1.25 1.25 0 1 1 0 2.5 1.25 1.25 0 0 1 0-2.5Zm-5.254 0a1.25 1.25 0 1 1 0 2.5 1.25 1.25 0 0 1 0-2.5ZM6.25 3A3.25 3.25 0 0 0 3 6.25V8h22V6.25A3.25 3.25 0 0 0 21.75 3H6.25Z" fill="#212121"/>
</svg>
